!!!COM: Bach, Johann Sebastian
!!!CDT: 1685/02/21/-1750/07/28/
!!!OTL@@DE: Ach wie fl&uuml;chtig, ach wie nichtig
!!!OTL@EN: Oh how fleeting, oh how fading
!!!OPR: Cantata, BWV 26: Ach wie fl&uuml;htig, ach wie nichtig
!!!SCT: BWV 26/6
!!!PC#: 48
!!!hymn: M. Franck (1609-1667)
!!!AGN: chorale
**harm	**kern	**kern	**kern	**kern
*	*ICvox	*ICvox	*ICvox	*ICvox
*	*Ibass	*Itenor	*Ialto	*Isoprn
*	*I"Bass	*I"Tenor	*I"Alto	*I"Soprano
*	*	*oclefC4	*oclefC3	*oclefC1
*	*clefF4	*clefGv2	*clefG2	*clefG2
*k[]	*k[]	*k[]	*k[]	*k[]
*a:	*a:	*a:	*a:	*a:
*M4/4	*M4/4	*M4/4	*M4/4	*M4/4
*met(c)	*met(c)	*met(c)	*met(c)	*met(c)
*MM100	*MM100	*MM100	*MM100	*MM100
=1-	=1-	=1-	=1-	=1-
i	4A	4c	4e	4a
V6	4G#	4B	4e	4b
i	4A	4A	4e	4cc
V;	4AA;	4A;	4e;	4cc;
=2	=2	=2	=2	=2
i	4A	4A	4e	4cc
C:V	4GnX	4B	4g	4dd
I	4c	4c	4g	4ee
I;	4C;	4c;	4g;	4ee;
=3	=3	=3	=3	=3
I	4c	4c	4g	4ee
vi	4A	4c	4cc	4ee
IV65	8F#L	8AL	8ccL	8ddL
viio	8G#J	8BJ	8bJ	8ddJ
i	4A	4c	4a	4cc
=4	=4	=4	=4	=4
ii%65	4D	4fnX	4a	4b
V7	4E	4d	4g#	4b
I;	2AA;	2c#;	2e;	2a;
=5	=5	=5	=5	=5
d:V	4AA	4c#	4a	4ee
V6	8C#XL	8eL	8aL	8eeL
V	8AAJ	8c#J	8aJ	8eeJ
i	4D	4d	4a	4ff
VI	4BB-	4d	4b-	4ff
=6	=6	=6	=6	=6
ii%65	4GG	4d	4b-	4ee
V7	4AA	4c#	4g	4ee
I	4D	4d	4f#	4dd
I;	4DD;	4A;	4f#;	4dd;
=7	=7	=7	=7	=7
C:V	4GG	4B	4g	4dd
V6	8BBL	8dL	8gL	8ddL
V	8GGJ	8BJ	8gJ	8ddJ
I	4C	4c	4g	4ee
vi	4AA	4c	4a	4ee
=8	=8	=8	=8	=8
ii65	4FF	4c	4a	4dd
V7	4GG	4B	4f	4dd
I	4C	4c	4e	4cc
I;	4CC;	4G;	4e;	4cc;
=9	=9	=9	=9	=9
a:VI	4F	4A	4f	4cc
iv	4D	4A	4f	4dd
V6	4GG#	4B	4e	4ee
i	4A	4A	4e	4cc
=10	=10	=10	=10	=10
V65/V	4D#	4A	4f#	4b
V7	4E	4G#	4dnX	4b
I	4A	4A	4c#	4a
I;	4AA;	4E;	4c#;	4a;
==	==	==	==	==
*-	*-	*-	*-	*-
!!!YOR1: 371 vierstimmige Choralges&auml;nge von Johann Sebastian Bach, 
!!!YOR2: 4th ed. by Alfred D&ouml;rffel (Leipzig: Breitkopf und H&auml;rtel, 
!!!YOR2: c.1875). 178 pp. Plate "V.A.10".  reprint: J.S. Bach, 371 Four-Part 
!!!YOR4: Chorales (New York: Associated Music Publishers, Inc., c.1940).
!!!SMS: B&H, 4th ed, Alfred D&ouml;rffel, c.1875, plate V.A.10
!!!PC#2: 11 (Budapest/Imre, 1982)
!!!EED:  Craig Stuart Sapp
!!!EEV:  2009/05/22
